X: 26201
T: McSweeney Side, The
R: jig
M: 6/8
K: Eminor
|:D|EEE FED|B2A FED|GBG F/G/AB|F2 E DB,A,|
E2 E FED|B2 A FED|GBG F/G/Ad|BGE E2:|
|:A|Bef e3|Bef g3|Bef g2 e|aba f/g/ab|
Bef e3|Bef g3|GBG F/G/Ad|BGE E2:|
|:e/f/|gec B2G|F2D DBA|F2D DBA|F2E E2 e/f/|
[1gec B2G|F2D DDD|B,A,G, A,B,D|F2E E2:|
[2gec B2G|FAd f2 e|dBA FBA|F2 E E2||

